src/assets/logorule/no-money-poverty-budget-poor-cash-svgrepo-com.svg

<!DOCTYPE svg PUBLIC "-//W3C//DTD SVG 1.1//EN" "http://www.w3.org/Graphics/SVG/1.1/DTD/svg11.dtd">
<!-- Uploaded to: SVG Repo, www.svgrepo.com, Transformed by: SVG Repo Mixer Tools -->
<svg fill="#ffffff" width="800px" height="800px" viewBox="0 0 50.00 50.00" xmlns="http://www.w3.org/2000/svg" stroke="#ffffff" stroke-width="0.0005">
<g id="SVGRepo_bgCarrier" stroke-width="0"/>
<g id="SVGRepo_tracerCarrier" stroke-linecap="round" stroke-linejoin="round"/>
<g id="SVGRepo_iconCarrier"> <g id="Solid"> <path d="M37,25.95537A11.02234,11.02234,0,1,0,48,36.97768,11.02363,11.02363,0,0,0,37,25.95537Zm4.707,14.322A1.00091,1.00091,0,0,1,40.293,41.69426L37,38.39462l-3.293,3.29964a1.01563,1.01563,0,0,1-1.41406,0,1.00309,1.00309,0,0,1,0-1.41693l3.293-3.29965L32.293,33.678A1.00091,1.00091,0,0,1,33.707,32.2611L37,35.56075l3.293-3.29965A1.00091,1.00091,0,0,1,41.707,33.678l-3.293,3.29965ZM42,15.93508a3.94829,3.94829,0,0,1,.04956-.491,20.27071,20.27071,0,0,0,3.27026-.903,1.97685,1.97685,0,0,1,1.82178.23338A2.0057,2.0057,0,0,1,48,16.41946v2.96615a3.94783,3.94783,0,0,1-2,.55759A4.00865,4.00865,0,0,1,42,15.93508ZM3.98779,13.44518c.54047-.20073,1.08069-.36965,1.62085-.52359A3.99264,3.99264,0,0,1,3,19.9432a3.94633,3.94633,0,0,1-1-.14232V16.28051A3.04444,3.04444,0,0,1,3.98779,13.44518ZM8,43.99189a3.9489,3.9489,0,0,1-.05023.49771,20.08607,20.08607,0,0,0-3.26813.89671,1.985,1.985,0,0,1-1.82519-.23485A2.00567,2.00567,0,0,1,2,43.508V40.54136a3.94773,3.94773,0,0,1,2-.55759A4.00865,4.00865,0,0,1,8,43.99189ZM25,21.94725a8.01447,8.01447,0,0,0-.94733,15.971C24.03015,37.606,24,37.29565,24,36.97768A13.0321,13.0321,0,0,1,31.44507,25.218,8.026,8.026,0,0,0,25,21.94725Zm0,4.00812a4.00865,4.00865,0,0,0-4,4.00811,1,1,0,1,1-2,0,6.01267,6.01267,0,0,1,6-6.01217,1.002,1.002,0,0,1,0,2.00406ZM8,5.34516V4.11427A2.01778,2.01778,0,0,1,9.80615,2.1112c5.189-.48194,10.38819.69085,15.41309,1.824,4.80859,1.08423,9.7793,2.20466,14.59568,1.801A2.01561,2.01561,0,0,1,42,7.72608v.67006c-9.81992,1.9151-19.63647-3.51761-29.69824-3.38356A27.49122,27.49122,0,0,0,8,5.34516Zm-3,5.528V9.624A1.997,1.997,0,0,1,6.52588,7.66883c6.30908-1.51527,12.604-.09638,18.69336,1.27651,5.99463,1.35186,11.6582,2.62837,17.37934,1.37636C43.92057,9.99936,46.261,12.1365,45,12.55917A20.68943,20.68943,0,0,1,41.09576,13.62C30.00439,15.032,18.81959,8.268,7.49805,10.43077ZM46,21.94725a6.01266,6.01266,0,0,1-6-6.01217c0-.06746.00787-.13284.01007-.19974-4.8399.4571-9.712-.63477-14.79034-1.77985-5.67359-1.2789-11.505-2.58972-17.3739-1.55118A5.98053,5.98053,0,0,1,9,15.93508a6.01266,6.01266,0,0,1-6,6.01217,5.97706,5.97706,0,0,1-1-.09051V38.33046a5.94945,5.94945,0,0,1,2-.35075,6.01267,6.01267,0,0,1,6,6.01218c0,.07167-.00824.14127-.01074.21234,4.82043-.44028,9.67346.66663,14.73144,1.82743,1.27533.29283,2.56562.586,3.86383.85665a13.05511,13.05511,0,0,1-4.23712-6.93763,10.01376,10.01376,0,1,1,9.01593-15.47089A12.91434,12.91434,0,0,1,48,30.06715V21.59651A5.9497,5.9497,0,0,1,46,21.94725ZM11,30.96551H9a1.002,1.002,0,0,1,0-2.00406h2a1.002,1.002,0,0,1,0,2.00406Z"/> </g> </g>
</svg>

<svg xmlns="http://www.w3.org/2000/svg" width="800" height="800" fill="#fff" stroke="#fff" stroke-width=".001" viewBox="0 0 50 50"><path d="M37 25.955a11.022 11.022 0 1 0 11 11.023 11.024 11.024 0 0 0-11-11.023Zm4.707 14.322a1 1 0 0 1-1.414 1.417L37 38.394l-3.293 3.3a1.016 1.016 0 0 1-1.414 0 1.003 1.003 0 0 1 0-1.417l3.293-3.3-3.293-3.299a1 1 0 0 1 1.414-1.417l3.293 3.3 3.293-3.3a1 1 0 0 1 1.414 1.417l-3.293 3.3ZM42 15.935a4 4 0 0 1 .05-.49 20 20 0 0 0 3.27-.904 1.98 1.98 0 0 1 1.822.233A2 2 0 0 1 48 16.42v2.967a3.95 3.95 0 0 1-2 .557 4.01 4.01 0 0 1-4-4.008Zm-38.012-2.49c.54-.2 1.08-.37 1.62-.523A3.993 3.993 0 0 1 3 19.943a4 4 0 0 1-1-.142v-3.52a3.04 3.04 0 0 1 1.988-2.836ZM8 43.992a4 4 0 0 1-.05.498 20 20 0 0 0-3.268.896 1.99 1.99 0 0 1-1.826-.235A2 2 0 0 1 2 43.508v-2.967a3.95 3.95 0 0 1 2-.557 4.01 4.01 0 0 1 4 4.008Zm17-22.045a8.014 8.014 0 0 0-.947 15.971c-.023-.312-.053-.622-.053-.94a13.03 13.03 0 0 1 7.445-11.76A8.03 8.03 0 0 0 25 21.948Zm0 4.008a4.01 4.01 0 0 0-4 4.008 1 1 0 1 1-2 0 6.013 6.013 0 0 1 6-6.012 1.002 1.002 0 0 1 0 2.004ZM8 5.345v-1.23A2.02 2.02 0 0 1 9.806 2.11c5.19-.482 10.388.691 15.413 1.824C30.028 5.02 35 6.14 39.815 5.736A2.016 2.016 0 0 1 42 7.726v.67c-9.82 1.915-19.636-3.517-29.698-3.383A27.5 27.5 0 0 0 8 5.345Zm-3 5.528V9.624a2 2 0 0 1 1.526-1.955c6.309-1.515 12.604-.097 18.693 1.276 5.995 1.352 11.658 2.629 17.38 1.377 1.322-.323 3.662 1.815 2.401 2.237a20.7 20.7 0 0 1-3.904 1.061C30.004 15.032 18.82 8.268 7.498 10.43Zm41 11.074a6.013 6.013 0 0 1-6-6.012c0-.067.008-.133.01-.2-4.84.457-9.712-.634-14.79-1.78-5.674-1.278-11.505-2.59-17.374-1.55A5.98 5.98 0 0 1 9 15.934a6.013 6.013 0 0 1-6 6.012 6 6 0 0 1-1-.09V38.33a6 6 0 0 1 2-.35 6.013 6.013 0 0 1 6 6.012c0 .072-.008.141-.01.212 4.82-.44 9.673.667 14.73 1.828 1.276.292 2.566.586 3.865.856a13.06 13.06 0 0 1-4.238-6.937 10.014 10.014 0 1 1 9.016-15.471A12.914 12.914 0 0 1 48 30.067v-8.47a6 6 0 0 1-2 .35Zm-35 9.019H9a1.002 1.002 0 0 1 0-2.005h2a1.002 1.002 0 0 1 0 2.005Z"/></svg>
